packages/icons/src/modulz-logo.svg

<svg width="15" height="15" viewBox="0 0 15 15" fill="none" xmlns="http://www.w3.org/2000/svg">
  <path
    fill-rule="evenodd"
    clip-rule="evenodd"
    d="M7.25925 3.16667L4.37036 5.33333V1L7.25925 3.16667ZM1 8.22222L3.88889 6.05555L1 3.88889V8.22222ZM1 14L3.88889 11.8333L1 9.66666V14ZM7.74072 8.22222L10.6296 6.05555L7.74072 3.88889V8.22222ZM14 3.16667L11.1111 5.33333V1L14 3.16667ZM11.1111 11.1111L14 8.94444L11.1111 6.77777V11.1111ZM3.88889 11.1111L1 8.94444L3.88889 6.77777V11.1111ZM4.37036 6.05555L7.25925 8.22222V3.88889L4.37036 6.05555ZM3.88889 5.33333L1 3.16667L3.88889 1V5.33333ZM7.74072 3.16667L10.6296 5.33333V1L7.74072 3.16667ZM14 8.22222L11.1111 6.05555L14 3.88889V8.22222ZM11.1111 11.8333L14 14V9.66666L11.1111 11.8333Z"
    fill="currentColor"
  />
</svg>

<svg xmlns="http://www.w3.org/2000/svg" width="15" height="15" fill="none"><path fill="currentColor" fill-rule="evenodd" d="M7.26 3.167 4.37 5.333V1zM1 8.222l2.889-2.166L1 3.889zM1 14l2.889-2.167L1 9.667zm6.74-5.778 2.89-2.166-2.89-2.167zM14 3.167l-2.889 2.166V1zm-2.889 7.944L14 8.944l-2.889-2.166zm-7.222 0L1 8.944l2.889-2.166zm.481-5.055 2.89 2.166V3.89zm-.481-.723L1 3.167 3.889 1zM7.74 3.167l2.889 2.166V1zM14 8.222l-2.889-2.166L14 3.889zm-2.889 3.611L14 14V9.667z" clip-rule="evenodd"/></svg>
